/* XPM */
static char */tmp/tmp[] = {
/* width height ncolors chars_per_pixel */
"28 28 9 1",
/* colors */
"  c #6D6D6D",
". c gray43",
"X c web gray",
"o c #818181",
"O c gray45",
"+ c gray55",
"@ c gray34",
"# c #7B7B7B",
"$ c None",
/* pixels */
"$$$$$$$$$$$$$$$$$$$$$$$$$$$$",
"$$$XXXXXXXXXXXXXXXXXXXXXX$$$",
"$$XXXXXXXXXXXXXXXXXXXXXXXX$$",
"$XX $$$$$$$$$$$$$$$$$$$$.XX$",
"$XX$$$$$$$$$$$$$$$$$$$$$$XX$",
"$XX$$$$$$$$$$$$$$$$$$$$$$XX$",
"$XX$$$$$$$$$$$$$$$$$$$$$$XX$",
"$XX$$$$$$$$$XXXX$$$$$$$$$XX$",
"$XX$$$$$$$$XXoXXX$$$$$$$$XX$",
"$XX$$$$$$$+X$$$$X $$$$$$$XX$",
"$XX$$$$$$$XX$$$$$$$$$$$$$XX$",
"$XX$$$$$$$+X$$$$$$$$$$$$$XX$",
"$XX$$$$$$$$XXo$$$$$$$$$$$XX$",
"$XX$$$$$$$$$XXXX $$$$$$$$XX$",
"$XX$$$$$$$$$$$$oX.$$$$$$$XX$",
"$XX$$$$$$$$$$$$$XX$$$$$$$XX$",
"$XX$$$$$$$@$$$$$oX$$$$$$$XX$",
"$XX$$$$$$$XX$$$$XX$$$$$$$XX$",
"$XX$$$$$$$.XXO#XX $$$$$$$XX$",
"$XX$$$$$$$$.XXXX $$$$$$$$XX$",
"$XX$$$$$$$$$$$$$$$$$$$$$$XX$",
"$XX$$$$$$$$$$$$$$$$$$$$$$XX$",
"$XX$$$$$$$$$$$$$$$$$$$$$$XX$",
"$XX$$$$$$$$$$$$$$$$$$$$$$XX$",
"$XX.$$$$$$$$$$$$$$$$$$$$.XX$",
"$$XXXXXXXXXXXXXXXXXXXXXXXX$$",
"$$$XXXXXXXXXXXXXXXXXXXXXX$$$",
"$$$$$$$$$$$$$$$$$$$$$$$$$$$$"
};
