/* XPM */
static char */tmp/tmp[] = {
/* width height ncolors chars_per_pixel */
"49 28 13 1",
/* colors */
"  c #6D6D6D",
". c gray43",
"X c web gray",
"o c #6F6F6F",
"O c #818181",
"+ c gray51",
"@ c #717171",
"# c gray45",
"$ c gray46",
"% c gray55",
"& c gray34",
"* c #7B7B7B",
"= c None",
/* pixels */
"=================================================",
"====OXXXXXXXXXXXXXXXXXXXXXXXXXXXXXXXXXXXXXXX.====",
"XXXXXXXXXXXXXXXXXXXXXXXXXXXXXXXXXXXXXXXXXXXXXX===",
"XXXXXXXXXXXXXXXXXXXXXXXXXXXXXXXXXXXXXXXXXXXXXX+==",
"XXXXXXXXXXXXX ======================OXX===.XXXX==",
"=XXXXXXX============================OXX=====XXX%=",
"=XXXXXXX============================OXX=====XXXX=",
"=XXX=XXX=============== X@===X======OXX=== OXXXX=",
"=XXX=XXX=============XXXXXX=XXX=====OXX=+XXXXXXX=",
"=XXX=XXX============XXXXXXXXXXX=====OXXXXXXXXXXX=",
"=XXX=XXX===========XXXX.==XXXXo=====OXXXX%==XXXX@",
"=XXX=XXX==========#XXX=====XXX&=====OXXX ===XXXXX",
"=XXX=XXX==========XXX.=====XXX======OXXX====XXXXX",
"=XXX=XXX==========XXX======XXX======OXX ====XXXXX",
"=XXX=XXX==========XXX======OXX======OXX=====XXXXX",
"=XXX=XXX=========&XX@======XXX======OXX=====XXXXX",
"=XXX=XXX=========&XX=======XXX======OXX=====XXXXX",
"=XXX=XXX========= XX=======XXX======OXX=====XXXXX",
"=XXX=XXX=========&XX=======XXX======OXX=====XXXXX",
"=XXX=XXX=========&XX&=====.XXX$=====OXX.====XXXXX",
"=XXX=XXX==========XXO=====XXXXX=====OXXX====XXXXX",
"=XXXXXXX==========XXX.===XX.XXX=====OXXXX ==XXXXO",
"=XXXXXXX========== XXXXXXXX=XXX=====OXXOXXXXXXXX=",
"=.XXXXXXOOOOOOOOOOXXXXXXXXOOXXXOOOOOXXXXXXXXXXX.=",
"==XXXXXXXXXXXXXXXXXXXXXXXXXXXXXXXXXXXXXXXXXXXX===",
"===+XXXXXXXXXXXXXXXXXXXXXXXXXXXXXXXXXXXXXXXXX====",
"=====%OXXXXXXXXXXXXXXXXXXXXXXXXXXXXXXXXXXXO*=====",
"================================================="
};
