/* XPM */
static char */tmp/tmp[] = {
/* width height ncolors chars_per_pixel */
"28 28 7 1",
/* colors */
"  c #6D6D6D",
". c gray43",
"X c web gray",
"o c #818181",
"O c #838383",
"+ c gray45",
"@ c None",
/* pixels */
"@@@@@@@@@@@@@@@@@@@@@@@@@@@@",
"@@@XXXXXXXXXXXXXXXXXXXXXX@@@",
"@@XXXXXXXXXXXXXXXXXXXXXXXX@@",
"@XX @@@@@@@@@@@@@@@@@@@@.XX@",
"@XX@@@@@@@@@@@@@@@@@@@@@@XX@",
"@XX@@@@@@@@@@@@@@@@@@@@@@XX@",
"@XX@@@@@@@@@@@@@@@@@@@@@@XX@",
"@XX@@@@@@@@@@XX@@@@@@@@@@XX@",
"@XX@@@@@@@@@ XX+@@@@@@@@@XX@",
"@XX@@@@@@@@@XXXX@@@@@@@@@XX@",
"@XX@@@@@@@@@XXXX@@@@@@@@@XX@",
"@XX@@@@@@@@@X@@X@@@@@@@@@XX@",
"@XX@@@@@@@@ X@@X @@@@@@@@XX@",
"@XX@@@@@@@@XX@@XX@@@@@@@@XX@",
"@XX@@@@@@@@Xo@@ X@@@@@@@@XX@",
"@XX@@@@@@@@XXooXX@@@@@@@@XX@",
"@XX@@@@@@@XXooooXO@@@@@@@XX@",
"@XX@@@@@@@XX@@@@XX@@@@@@@XX@",
"@XX@@@@@@@X @@@@ X@@@@@@@XX@",
"@XX@@@@@@@X@@@@@@X@@@@@@@XX@",
"@XX@@@@@@@@@@@@@@@@@@@@@@XX@",
"@XX@@@@@@@@@@@@@@@@@@@@@@XX@",
"@XX@@@@@@@@@@@@@@@@@@@@@@XX@",
"@XX@@@@@@@@@@@@@@@@@@@@@@XX@",
"@XX.@@@@@@@@@@@@@@@@@@@@.XX@",
"@@XXXXXXXXXXXXXXXXXXXXXXXX@@",
"@@@XXXXXXXXXXXXXXXXXXXXXX@@@",
"@@@@@@@@@@@@@@@@@@@@@@@@@@@@"
};
