/* XPM */
static char */tmp/tmp[] = {
/* width height ncolors chars_per_pixel */
"28 28 7 1",
/* colors */
"  c #6D6D6D",
". c #6E6E6E",
"X c #808080",
"o c #818181",
"O c #8C8C8C",
"+ c #575757",
"@ c None",
/* pixels */
"@@@@@@@@@@@@@@@@@@@@@@@@@@@@",
"@@@XXXXXXXXXXXXXXXXXXXXXX@@@",
"@@XXXXXXXXXXXXXXXXXXXXXXXX@@",
"@XX @@@@@@@@@@@@@@@@@@@@.XX@",
"@XX@@@@@@@@@@@@@@@@@@@@@@XX@",
"@XX@@@@@@@@@@@@@@@@@@@@@@XX@",
"@XX@@@@@@@@@@@@@@@@@@@@@@XX@",
"@XX@@@@@@@@@@XXXo@@@@@@@@XX@",
"@XX@@@@@@@@OXXXXXX@@@@@@@XX@",
"@XX@@@@@@@@Xo@@@@X@@@@@@@XX@",
"@XX@@@@@@@XX@@@@@@@@@@@@@XX@",
"@XX@@@@@@@XX@@@@@@@@@@@@@XX@",
"@XX@@@@@@@X @@@@@@@@@@@@@XX@",
"@XX@@@@@@@X+@@@@@@@@@@@@@XX@",
"@XX@@@@@@@X+@@@@@@@@@@@@@XX@",
"@XX@@@@@@@Xo@@@@@@@@@@@@@XX@",
"@XX@@@@@@@XX@@@@@@@@@@@@@XX@",
"@XX@@@@@@@ XX@@@@@@@@@@@@XX@",
"@XX@@@@@@@@XXX +XX@@@@@@@XX@",
"@XX@@@@@@@@@XXXXXX@@@@@@@XX@",
"@XX@@@@@@@@@@@@@@@@@@@@@@XX@",
"@XX@@@@@@@@@@@@@@@@@@@@@@XX@",
"@XX@@@@@@@@@@@@@@@@@@@@@@XX@",
"@XX@@@@@@@@@@@@@@@@@@@@@@XX@",
"@XX.@@@@@@@@@@@@@@@@@@@@.XX@",
"@@XXXXXXXXXXXXXXXXXXXXXXXX@@",
"@@@XXXXXXXXXXXXXXXXXXXXXX@@@",
"@@@@@@@@@@@@@@@@@@@@@@@@@@@@"
};
