/* XPM */
static char */tmp/tmp[] = {
/* width height ncolors chars_per_pixel */
"28 28 7 1",
/* colors */
"  c #6D6D6D",
". c #6E6E6E",
"X c #808080",
"o c #818181",
"O c #878787",
"+ c #575757",
"@ c None",
/* pixels */
"@@@@@@@@@@@@@@@@@@@@@@@@@@@@",
"@@@XXXXXXXXXXXXXXXXXXXXXX@@@",
"@@XXXXXXXXXXXXXXXXXXXXXXXX@@",
"@XX @@@@@@@@@@@@@@@@@@@@.XX@",
"@XX@@@@@@@@@@@@@@@@@@@@@@XX@",
"@XX@@@@@@@@@@@@@@@@@@@@@@XX@",
"@XX@@@@@@@@@@@@@@@@@@@@@@XX@",
"@XX@@@@@@@XX@@@@XX@@@@@@@XX@",
"@XX@@@@@@@XXo@@XXX@@@@@@@XX@",
"@XX@@@@@@@XXX@@XXX@@@@@@@XX@",
"@XX@@@@@@@XXX@@XXX@@@@@@@XX@",
"@XX@@@@@@@X+XX.X+X@@@@@@@XX@",
"@XX@@@@@@@X+OXXX+X@@@@@@@XX@",
"@XX@@@@@@@X+@XX@+X@@@@@@@XX@",
"@XX@@@@@@@X+@XX@+X@@@@@@@XX@",
"@XX@@@@@@@X+@@@@+X@@@@@@@XX@",
"@XX@@@@@@@X+@@@@+X@@@@@@@XX@",
"@XX@@@@@@@X+@@@@+X@@@@@@@XX@",
"@XX@@@@@@@X+@@@@+X@@@@@@@XX@",
"@XX@@@@@@@X@@@@@@X@@@@@@@XX@",
"@XX@@@@@@@@@@@@@@@@@@@@@@XX@",
"@XX@@@@@@@@@@@@@@@@@@@@@@XX@",
"@XX@@@@@@@@@@@@@@@@@@@@@@XX@",
"@XX@@@@@@@@@@@@@@@@@@@@@@XX@",
"@XX.@@@@@@@@@@@@@@@@@@@@.XX@",
"@@XXXXXXXXXXXXXXXXXXXXXXXX@@",
"@@@XXXXXXXXXXXXXXXXXXXXXX@@@",
"@@@@@@@@@@@@@@@@@@@@@@@@@@@@"
};
