/* XPM */
static char */tmp/tmp[] = {
/* width height ncolors chars_per_pixel */
"28 28 7 1",
/* colors */
"  c #6D6D6D",
". c #6E6E6E",
"X c #808080",
"o c #818181",
"O c #828282",
"+ c #575757",
"@ c None",
/* pixels */
"@@@@@@@@@@@@@@@@@@@@@@@@@@@@",
"@@@XXXXXXXXXXXXXXXXXXXXXX@@@",
"@@XXXXXXXXXXXXXXXXXXXXXXXX@@",
"@XX @@@@@@@@@@@@@@@@@@@@.XX@",
"@XX@@@@@@@@@@@@@@@@@@@@@@XX@",
"@XX@@@@@@@@@@@@@@@@@@@@@@XX@",
"@XX@@@@@@@@@@@@@@@@@@@@@@XX@",
"@XX@@@@@@@XX@@@@Xo@@@@@@@XX@",
"@XX@@@@@@@XX@@@@XX@@@@@@@XX@",
"@XX@@@@@@@XX@@@@XX@@@@@@@XX@",
"@XX@@@@@@@XX@@@@XX@@@@@@@XX@",
"@XX@@@@@@@XX@@@@XX@@@@@@@XX@",
"@XX@@@@@@@XX++++XX@@@@@@@XX@",
"@XX@@@@@@@XXXXXXXX@@@@@@@XX@",
"@XX@@@@@@@XX@@@@XX@@@@@@@XX@",
"@XX@@@@@@@XX@@@@XX@@@@@@@XX@",
"@XX@@@@@@@XX@@@@XX@@@@@@@XX@",
"@XX@@@@@@@XX@@@@XX@@@@@@@XX@",
"@XX@@@@@@@XX@@@@XX@@@@@@@XX@",
"@XX@@@@@@@oX@@@@XO@@@@@@@XX@",
"@XX@@@@@@@@@@@@@@@@@@@@@@XX@",
"@XX@@@@@@@@@@@@@@@@@@@@@@XX@",
"@XX@@@@@@@@@@@@@@@@@@@@@@XX@",
"@XX@@@@@@@@@@@@@@@@@@@@@@XX@",
"@XX.@@@@@@@@@@@@@@@@@@@@.XX@",
"@@XXXXXXXXXXXXXXXXXXXXXXXX@@",
"@@@XXXXXXXXXXXXXXXXXXXXXX@@@",
"@@@@@@@@@@@@@@@@@@@@@@@@@@@@"
};
