/* XPM */
static char */tmp/tmp[] = {
/* width height ncolors chars_per_pixel */
"49 28 15 1",
/* colors */
"  c #6D6D6D",
". c gray43",
"X c web gray",
"o c #818181",
"O c gray51",
"+ c #717171",
"@ c #848484",
"# c gray45",
"$ c gray53",
"% c #888888",
"& c gray55",
"* c gray34",
"= c #7B7B7B",
"- c #8E8E8E",
"; c None",
/* pixels */
";;;;;;;;;;;;;;;;;;;;;;;;;;;;;;;;;;;;;;;;;;;;;;;;;",
";;;;oXXXXXXXXXXXXXXXXXXXXXXXXXXXXXXXXXXXXXXX.;;;;",
";XXXXXXXXXXXXXXXXXXXXXXXXXXXXXXXXXXXXXXXXXXXXX;;;",
"oXXXXXXXXXXXXXXXXXXXXXXXXXXXXXXXXXXXXXXXXXXXXXO;;",
"XXXXXXXXXXXXO;;;;;;;;;;;;;;;;;;;;;;;;;;;;;.XXXX;;",
"XXXXX;;;;;;;;;;;;;;;;;;;;;;;;;;;;;;;;;;;;;;;XXX&;",
"XXXX;;;;;;;;;;;;;;;;;;;;;;;;;;;;;;;;;;;;;;;;XXXX;",
"XXXX;;;;;;;;;;;;;;;;;;*$Xo*;;;;;;;;;;;;;;; XXXXX;",
"XXXX;;;;;;;;;;;;;;;;XXXXXXXXo;;;;;;;;;; XXXXXXXX;",
"XXXX;;;;;;;;;;;;;;;XXXXXXXXXXX;;;;;;;;oXXXXXXXXXX",
"XXXX;;;;;;;;;;;;;;;XXX ;;; XXXo;;;;;;.XXXX;;XXXXX",
"XXXXO@@@@@%;;;;;;; XX ;;;;;;XXX;;;;;;XXX.;;;XXXXX",
"XXXXXXXXXXXX;;;;;;-XX;;;;;;;;;;;;;;;#XXO;;;;XXXX;",
"XXXXXXXXXXXX;;;;;;;XXX;;;;;;;;;;;;;;XXX;;;;;XXXX;",
"XXXX;;;;;;;;;;;;;;;XXXXXX;;;;;;;;;;;XXX;;;;;XXXX;",
"XXXX;;;;;;;;;;;;;;;;XXXXXXXX;;;;;;;;XXX;;;;;XXXX;",
"XXXX;;;;;;;;;;;;;;;;;;oXXXXXXX;;;;;;XXX;;;;;XXXX;",
"XXXX;;;;;;;;;;;;;;;;;;;;;+XXXXX;;;;;XXX;;;;;XXXX;",
"XXXX;;;;;;;;;;;;;;;;;;;;;;;;XXX;;;;;XXX;;;;;XXXX;",
"XXXX;;;;;;;;;;;;;;;;;;;;;;;;oXX;;;;; XX@;;;;XXXX;",
"XXXX;;;;;;;;;;;;;;XXX;;;;;;;oXX;;;;;;XXX;;;;XXXX;",
"XXXX.;;;;;;;;;;;;;XXXX;;;;; XXX;;;;;;XXXX.;;XXXXX",
"XXXXXXXXXXXXX;;;;;.XXXXXXXXXXX.;;;;;;;XXXXXXXXXXX",
"@XXXXXXXXXXXXooooooXXXXXXXXXXXooooooooXXXXXXXXXX;",
";;XXXXXXXXXXXXXXXXXXXXXXXXXXXXXXXXXXXXXXXXXXXX.;;",
";;;OXXXXXXXXXXXXXXXXXXXXXXXXXXXXXXXXXXXXXXXXX;;;;",
";;;;;&oXXXXXXXXXXXXXXXXXXXXXXXXXXXXXXXXXXXo=;;;;;",
";;;;;;;;;;;;;;;;;;;;;;;;;;;;;;;;;;;;;;;;;;;;;;;;;"
};
