/* XPM */
static char */tmp/tmp[] = {
/* width height ncolors chars_per_pixel */
"28 28 10 1",
/* colors */
"  c #6D6D6D",
". c #6E6E6E",
"X c #808080",
"o c #818181",
"O c #828282",
"+ c #737373",
"@ c #8C8C8C",
"# c #575757",
"$ c #7B7B7B",
"% c None",
/* pixels */
"%%%%%%%%%%%%%%%%%%%%%%%%%%%%",
"%%%XXXXXXXXXXXXXXXXXXXXXX%%%",
"%%XXXXXXXXXXXXXXXXXXXXXXXX%%",
"%XX %%%%%%%%%%%%%%%%%%%%.XX%",
"%XX%%%%%%%%%%%%%%%%%%%%%%XX%",
"%XX%%%%%%%%%%%%%%%%%%%%%%XX%",
"%XX%%%%%%%%%%%%%%%%%%%%%%XX%",
"%XX%%%%%%%%%%%%%%%%%%%%%%XX%",
"%XX%%%%%%%%%%%%%%%%%%%%%%XX%",
"%XX%%%%%%%%%%%%%%%%%%%%%%XX%",
"%XX%%%%%%%%%XXXX%%%%%%%%%XX%",
"%XX%%%%%%%%XXXXXX%%%%%%%%XX%",
"%XX%%%%%%%#X%%%%XX%%%%%%%XX%",
"%XX%%%%%%%#X.%%%%%%%%%%%%XX%",
"%XX%%%%%%%%XXXX$%%%%%%%%%XX%",
"%XX%%%%%%%%%+XXXX%%%%%%%%XX%",
"%XX%%%%%%%%%%%%%Xo%%%%%%%XX%",
"%XX%%%%%%%o.%%%%XX%%%%%%%XX%",
"%XX%%%%%%%OXX #oXO%%%%%%%XX%",
"%XX%%%%%%%%@XXXXX%%%%%%%%XX%",
"%XX%%%%%%%%%%%%%%%%%%%%%%XX%",
"%XX%%%%%%%%%%%%%%%%%%%%%%XX%",
"%XX%%%%%%%%%%%%%%%%%%%%%%XX%",
"%XX%%%%%%%%%%%%%%%%%%%%%%XX%",
"%XX.%%%%%%%%%%%%%%%%%%%%.XX%",
"%%XXXXXXXXXXXXXXXXXXXXXXXX%%",
"%%%XXXXXXXXXXXXXXXXXXXXXX%%%",
"%%%%%%%%%%%%%%%%%%%%%%%%%%%%"
};
